X:363
T:Ragtime Annie
C:Traditional
N:Transcribed by Mike Stangeland
R:bluegrass
L:1/8
Q:1/4=215
M:4/4
K:D
z6 FE |: "D"DF BF Ac BF | Ac BF A2 EF | DF BF Ac BF | "A"AB cd c2 cB | AB cA BA cB | 
AB cA B2 B/c/B | AB cd eg fe |1 d2 cd Bd AF :|2 d"D"c ec de fg | a4 af dB | A2 AB A2 de | 
fg af gf ed | "G"B2 [g2B2] [g2B2] ef | "A"g2 ef gf ef | g2 ef gf ef | gf ed cB AG | 
"D"F2 [AF][AF] [A2F2] fg | af bf af de | fd eg fe dA | =cd fg ag fa | "G"g2 gg g2 ef | 
gd ga b2 ag | "D"fd fg a2 ef | "A"gf ed cA Bc | "D"dc ec d4 | 


